app/img/icons/facebook.svg

<svg width="6" height="14" viewBox="0 0 6 14" fill="none" xmlns="http://www.w3.org/2000/svg">
<path d="M3.85955 13.3614V7.56628H5.61909L5.88064 5.29732H3.85955V3.85208C3.85955 3.19734 4.02373 2.74906 4.86945 2.74906H5.94109V0.726147C5.41968 0.664061 4.89558 0.634082 4.37118 0.63635C2.81591 0.63635 1.74809 1.69129 1.74809 3.62794V5.29307H0V7.56204H1.75191V13.3614H3.85955Z" fill="white"/>
</svg>

<svg width="6" height="14" fill="none" xmlns="http://www.w3.org/2000/svg"><path d="M3.86 13.361V7.566h1.76l.26-2.269H3.86V3.852c0-.655.164-1.103 1.01-1.103h1.07V.726a12.807 12.807 0 00-1.57-.09c-1.555 0-2.623 1.055-2.623 2.992v1.665H0v2.269h1.752v5.8H3.86z" fill="#fff"/></svg>
